X:1
T:Fly to Thy Refuge
T:Fly to Thy Refuge
T:Ernest Orlando Sellers
T:W. W. Pinson, 1901
T:Public Domain Courtesy of the Cyber Hymnal™
T:Public Domain Courtesy of the Cyber Hymnal™
C:Ernest Orlando Sellers
Z:Public Domain
Z:Courtesy of the Cyber Hymnal™
%%score ( 1 2 ) ( 3 4 )
L:1/8
Q:1/4=90
M:6/8
K:Eb
V:1 treble 
V:2 treble 
V:3 bass 
V:4 bass 
V:1
 [EB] | [EB]>[E=A][EB] [Ec][EB][EG] | [DF] E4 [GB] | [GB]>[^F=A][GB] [_Ac][GB][EG] | %4
w: 1.~Why|build on the sand- y foun-|da- tion, Where|tor- rents and tem- pests beat|
w: 2.~Too|long you have tar- ried al-|rea- dy, The|morn- ing of life has passed|
w: 3.~O,|sweet is the plead- ing of|Je- sus, And|great is the love of His|
 [DF]3- [DF]2 [DA] | [DA]>[DG][DG] [Gd]>[Ac][AB] | [GB] [Ge]4 [EG] | [EG]>[EG][EG] [E=A][EG][EF] | %8
w: high? * Why|hide thy poor soul in the|stub- ble When|storms ga- ther fast in the|
w: by; * The|sea- son of mer- cy is|wan- ing, The|sea- son of wrath draw- eth|
w: heart, * But|soon from the throne of His|judg- ment His|jus- tice will bid you de-|
 [DB]3- [DB]2 [AB] | [Ad]>[Ad][Ad] [Ad][Ac][AB] | [GB] [Ge]4 [EG] | [=EG]>[Ec][Ec] [Ec][Fc][GB] | %12
w: sky? * The|sun will not al- ways be|shin- ing, The|skies will not al- ways be|
w: nigh. * No|long- er seek rich- es or|plea- sure, But|think of how fear- ful the|
w: part. * Then|hark to the voice of His|mer- cy, While|now at the do- or He|
 [FA]3- [FA]2 [DA] | [Ad]>[Ad][Ad] [Ad][Ac][AB] | [GB] [EG]3 (E[EF]) | [EG]>[Ec][EB] [DB][DA][DF] | %16
w: fair, * And|when the blast falls in its|fu- ry, No *|time then for pur- pose or|
w: cost, * If|all of earth’s sto- res you|ga- ther, And *|then be e- ter- nal- ly|
w: stands, * And|weeps for your sin and your|fol- ly, And *|knocks with His nail- pierc- èd|
 E3- E2 ||"^Refrain" G | G>FE E<DE | FEF G2 G | [EG]>[EG][EG] [E=A]>[EG][EF] | %21
w: prayer. *|||||
w: lost. *|Then,|quick to thy ref- uge, to|Cal- va- ry fly; The|soul that ne- glects it for-|
w: hands. *|||||
 [DF][EG][DA] !fermata![EG]2 [EB] | [Ee]>[Ee][Ee] [Ee]E[EF] | [EG][EG]>[DF] !fermata!E2 |] %24
w: |||
w: ev- er shall die, The|soul that ne- glects it for-|ev- er shall die.|
w: |||
V:2
 x | x6 | x E4 x | x6 | x6 | x6 | x6 | x6 | x6 | x6 | x6 | x6 | x6 | x6 | x4 E x | x6 | E3- E2 || %17
 G | G>FE E<DE | FEF G2 G | x6 | x6 | x4 E x | x3 E2 |] %24
V:3
 [E,G,] | [E,G,]>[E,^F,][E,G,] [E,A,][E,G,][E,B,] | [B,,A,] [E,G,]4 [E,E] | %3
 [E,E]>[E,E][E,E] [E,E][E,E][E,B,] | [B,,B,]3- [B,,B,]2 [B,,F,] | %5
 [B,,F,]>[B,,F,][B,,F,] [B,,B,]>[B,,B,][D,B,] | [E,B,] [E,B,]4 [E,B,] | %7
 [C,C]>[C,C][C,C] [F,C][F,B,][=A,C] | B,3 [B,,B,]2 [B,,D] | %9
 [B,,F]>[B,,F][B,,F] [B,,F][B,,E][A,,D] | [E,E] [E,B,]4 [E,B,] | %11
 [C,C]>[C,G,][C,G,] [C,G,][D,C][=E,C] | [F,C]3- [F,C]2 [F,B,] | %13
 [B,,B,]>[B,,B,][B,,B,] [B,,B,][B,,B,][D,B,] | [E,B,] [E,B,]3 ([C,=A,][C,A,]) | %15
 [B,,B,]>[B,,A,][B,,G,] [B,,F,][B,,B,][B,,A,] | [E,G,]3- [E,G,]2 || G, | G,>F,E, E,<D,E, | %19
 F,E,F, G,2 G, | [C,C]>[C,C][C,C] [F,C]>[F,C][=A,C] | [A,B,][G,B,][F,B,] !fermata![E,B,]2 [E,G,] | %22
 [E,G,]>[F,A,][G,B,] [A,C][=A,C][A,C] | B,[B,,B,]>[B,,A,] !fermata![E,G,]2 |] %24
V:4
 x | x6 | x6 | x6 | x6 | x6 | x6 | x6 | B,3- x3 | x6 | x6 | x6 | x6 | x6 | x6 | x6 | x5 || G, | %18
 G,>F,E, E,<D,E, | F,E,F, G,2 G, | x6 | x6 | x6 | B, x4 |] %24

